X: 28216
T: Mrs. Douglas Of Ednam
R: reel
M: 4/4
K: Amajor
d|{d}cA A/A/A (A2 Ac)|dBcA GBBd|cA A/A/A A2 Ac|defg aAA:|
d|cea(e {a}fe)ae|ceae fBBd|ceae feae|fdec A/A/A Ad|
ceae feae|ceae fBBd|ceag fedc|dfec A/A/A A2||

